packages/core/src/svgs/eqx.svg

<svg width="24" height="24" viewBox="0 0 24 24" fill="none" xmlns="http://www.w3.org/2000/svg">
<g clip-path="url(#clip0_31_10016)">
<path d="M0 0H24V24H0V0Z" fill="url(#paint0_linear_31_10016)"/>
<path d="M6 18V6H18V7.71429H7.71429V16.2857H14.5714V18H6ZM16.2857 10.7143H9V9H18V18H16.2857V14.1429H9V12.4286H16.2857V10.7143Z" fill="white"/>
</g>
<defs>
<linearGradient id="paint0_linear_31_10016" x1="2.14286" y1="4.28571" x2="19.9286" y2="20.5714" gradientUnits="userSpaceOnUse">
<stop stop-color="#112650"/>
<stop offset="1" stop-color="#38A28B"/>
</linearGradient>
<clipPath id="clip0_31_10016">
<rect width="24" height="24" fill="white"/>
</clipPath>
</defs>
</svg>

<svg xmlns="http://www.w3.org/2000/svg" width="24" height="24" fill="none" viewBox="0 0 24 24"><g clip-path="url(#a)"><path fill="url(#b)" d="M0 0h24v24H0z"/><path fill="#fff" d="M6 18V6h12v1.714H7.714v8.572h6.857V18zm10.286-7.286H9V9h9v9h-1.714v-3.857H9v-1.714h7.286z"/></g><defs><linearGradient id="b" x1="2.143" x2="19.929" y1="4.286" y2="20.571" gradientUnits="userSpaceOnUse"><stop stop-color="#112650"/><stop offset="1" stop-color="#38A28B"/></linearGradient><clipPath id="a"><path fill="#fff" d="M0 0h24v24H0z"/></clipPath></defs></svg>
